static/images/mobile/copyright/wikipedia-wordmark-sd.svg

<?xml version="1.0" encoding="UTF-8"?>
<svg width="120px" height="31px" viewBox="0 0 120 31" version="1.1" xmlns="http://www.w3.org/2000/svg" xmlns:xlink="http://www.w3.org/1999/xlink">
    <title>wikipedia-wordmark-sd</title>
    <g id="Page-1" stroke="none" stroke-width="1" fill="none" fill-rule="evenodd">
        <path d="M112.517883,28.3086924 C111.236326,28.3086924 110.125349,28.2073388 109.184953,28.0046317 C108.253726,27.8111373 107.354802,27.4564105 106.488182,26.9404512 L108.133964,23.8583984 C108.89923,24.2545999 109.622989,24.5310189 110.30524,24.6876556 C110.987505,24.853512 111.69744,24.9364402 112.435044,24.9364402 C113.504583,24.9364402 114.329766,24.6415922 114.910593,24.0518963 C115.491441,23.471406 115.781865,22.6697903 115.781865,21.6470492 L115.781865,21.5088379 L112.97443,21.5088379 C110.955255,21.5088379 109.401728,20.9375744 108.313851,19.7950474 C107.225903,18.6525204 106.681929,17.0262397 106.681929,14.9162053 C106.681929,13.4235684 107.055322,12.1151849 107.802109,10.9910551 C108.548897,9.85776186 109.604577,8.99165039 110.969149,8.39272065 C112.333651,7.793805 113.910241,7.49434718 115.69892,7.49434718 L120,7.49434718 L120,21.5914348 C120,23.738334 119.345397,25.3922457 118.036192,26.5531699 C116.736226,27.7233279 114.896871,28.3084069 112.518126,28.3084069 L112.517883,28.3086924 Z M115.781727,18.1087363 L115.781727,10.8940894 L114.868962,10.8940894 C113.661181,10.8940894 112.716165,11.2350113 112.033914,11.9168551 C111.360867,12.5986919 111.024344,13.5615471 111.024344,14.8054206 C111.024344,15.9387138 111.254837,16.7725774 111.715824,17.3070113 C112.176817,17.8414241 112.882132,18.1086305 113.831768,18.1086305 L115.781727,18.1086305 L115.781727,18.1087363 Z M56.5223766,27.3703421 C57.0202442,27.3703421 57.4120818,27.5269787 57.6978895,27.840252 C57.9929227,28.1627451 58.1404393,28.5820029 58.1404393,29.0980256 C58.1404393,29.6140131 57.9929227,30.0286541 57.6978895,30.3419485 C57.4120748,30.6644416 57.0202372,30.8256881 56.5223766,30.8256881 C56.0706084,30.8256141 55.6879751,30.6827964 55.3744768,30.3971611 C55.0702251,30.1115259 54.9180993,29.6784525 54.9180993,29.0979411 C54.9180993,28.4990254 55.0702251,28.0613704 55.3744768,27.784976 C55.6879469,27.5085534 56.0705801,27.3703421 56.5223766,27.3703421 Z M66.3688498,24.5093829 C66.9496977,24.5093829 67.4060717,24.6890548 67.7379717,25.0483985 C68.0698858,25.4077493 68.2358428,25.9099001 68.2358428,26.554851 C68.2358428,27.1998371 68.0652765,27.6974062 67.724144,28.0475584 C67.3830114,28.4069092 66.9312573,28.5865846 66.3688816,28.5865846 C65.7879702,28.5865846 65.3269764,28.4022712 64.9858368,28.0337077 C64.6447043,27.6743639 64.474138,27.1814117 64.474138,26.554851 C64.474138,25.9190846 64.640095,25.4169338 64.9720091,25.0483985 C65.3131417,24.6890548 65.7787553,24.5093829 66.3688498,24.5093829 Z M71.1815654,24.5093829 C71.7716318,24.5093829 72.2326255,24.6890548 72.5645467,25.0483985 C72.8964608,25.416962 73.0624178,25.9191128 73.0624178,26.554851 C73.0624178,27.1814117 72.8872423,27.6743639 72.5368913,28.0337077 C72.1957587,28.4022712 71.7440046,28.5865529 71.1816289,28.5865529 C70.6006858,28.5865529 70.139692,28.4022712 69.7985524,28.0337077 C69.4574198,27.6743639 69.2868536,27.1814117 69.2868536,26.554851 C69.2868536,25.9190846 69.4528106,25.4169338 69.7847247,25.0483985 C70.1258573,24.6890548 70.5914708,24.5093829 71.1815654,24.5093829 Z M41.2536477,24.5093829 C41.8344956,24.5093829 42.2908695,24.6890548 42.6227695,25.0483985 C42.9546836,25.4077493 43.1206407,25.9099001 43.1206407,26.554851 C43.1206407,27.1998371 42.9500744,27.6974062 42.6089418,28.0475584 C42.2678093,28.4069092 41.8160551,28.5865846 41.2536794,28.5865846 C40.6727681,28.5865846 40.2117743,28.4022712 39.8706347,28.0337077 C39.5295021,27.6743639 39.3589358,27.1814117 39.3589358,26.554851 C39.3589358,25.9190846 39.5248929,25.4169338 39.856807,25.0483985 C40.1979395,24.6890548 40.6635531,24.5093829 41.2536477,24.5093829 Z M46.0663632,24.5093829 C46.6564296,24.5093829 47.1174234,24.6890548 47.4493445,25.0483985 C47.7812586,25.416962 47.9472157,25.9191128 47.9472157,26.554851 C47.9472157,27.1814117 47.7720401,27.6743639 47.4216891,28.0337077 C47.0805566,28.4022712 46.6288024,28.5865529 46.0664267,28.5865529 C45.4854836,28.5865529 45.0244899,28.4022712 44.6833502,28.0337077 C44.3422177,27.6743639 44.1716514,27.1814117 44.1716514,26.554851 C44.1716514,25.9190846 44.3376085,25.4169338 44.6695225,25.0483985 C45.0106551,24.6890548 45.4762687,24.5093829 46.0663632,24.5093829 Z M26.7185908,24.5048365 C27.2902202,24.5048365 27.7419743,24.6845084 28.0738532,25.0438521 C28.4149857,25.4032029 28.585552,25.9053537 28.585552,26.5503046 C28.585552,27.1768653 28.4103765,27.6698175 28.0600255,28.0291613 C27.7188929,28.3977247 27.2717233,28.5820065 26.7185167,28.5820065 C26.1285985,28.5820065 25.6629849,28.3977247 25.3218241,28.0291613 C24.9806916,27.6698175 24.8101253,27.1768653 24.8101253,26.5503046 C24.8101253,25.9145382 24.9760823,25.4123874 25.3079964,25.0438521 C25.649129,24.6845084 26.1193271,24.5048365 26.7185908,24.5048365 Z M54.1160506,23.1824614 C54.7061169,23.1824614 55.1671107,23.3621368 55.4990318,23.7214875 C55.8309459,24.090051 55.996903,24.5876202 55.996903,25.214195 C55.996903,25.8499613 55.8217275,26.3475305 55.4713764,26.7069024 C55.1302439,27.0754589 54.6784897,27.2597371 54.116114,27.2597371 C53.5351709,27.2597371 53.0741772,27.0754589 52.7330376,26.7069024 C52.391905,26.338339 52.2213387,25.8407698 52.2213387,25.214195 C52.2213387,24.5876413 52.3872958,24.0900722 52.7192099,23.7214875 C53.0511239,23.3621368 53.5167375,23.1824614 54.1160506,23.1824614 Z M58.9425198,23.1825354 C59.5141492,23.1825354 59.9659033,23.3622108 60.2977821,23.7215616 C60.6389147,24.0809053 60.809481,24.5784745 60.809481,25.214269 C60.809481,25.8500354 60.6343055,26.3476045 60.2839544,26.7069765 C59.9428219,27.0755329 59.4956523,27.2598111 58.9424457,27.2598111 C58.3525274,27.2597371 57.8869139,27.0800652 57.5457531,26.7207215 C57.2046206,26.3613707 57.0340543,25.8592198 57.0340543,25.214269 C57.0340543,24.5877153 57.2000113,24.0901462 57.5319254,23.7215616 C57.8638395,23.3622108 58.3340376,23.1825354 58.9425198,23.1825354 Z M89.2990961,2.22528444 L90.8480732,6.02609527 C89.2253554,6.51443764 87.6902377,7.24235896 86.2427202,8.20985923 C84.8044422,9.17736654 83.7625865,10.163271 83.1171529,11.1675726 L94.4438033,11.1675726 C97.1267503,11.1675726 99.1412704,11.7112052 100.487364,12.7984702 C101.842697,13.8857353 102.520363,15.4751512 102.520363,17.5667179 L102.520363,21.5057189 L75.4835558,21.5063313 C75.4707087,21.5089117 75.4565705,21.5102019 75.4411413,21.5102019 L37.4641711,21.5102019 L37.422,21.505 L20.3426895,21.5057506 L20.3426895,18.1057652 L29.8026538,18.1056701 C29.4154219,16.3642133 28.9406039,14.9590862 28.3782,13.8902888 C27.8250075,12.8122575 27.1150729,11.8862319 26.2483962,11.112212 C25.390945,10.3290287 24.3398849,9.67945392 23.0952158,9.16348761 L24.6856654,5.19689089 C27.1750035,6.19202919 29.1803193,7.73076477 30.7016128,9.81309765 C32.2229063,11.895501 33.3385027,14.6597271 34.0484021,18.1057758 L37.7685497,18.1057758 L37.818337,18.1101983 L41.8483021,18.1102271 L41.8483021,7.49591199 L46.0663315,7.49591199 L46.0663315,18.1102271 L54.4064322,18.1102271 L54.4064322,7.49591199 L58.6244616,7.49591199 L58.6244616,18.1102271 L66.9635043,18.1102271 L66.9635043,7.49591199 L71.1815337,7.49591199 L71.1815337,18.1102271 L74.999,18.11 L98.3019105,18.1056701 C98.3019105,16.963143 97.9100729,16.0877977 97.1263976,15.4796342 C96.3427223,14.8715129 95.2317457,14.5674523 93.7934678,14.5674523 L78.7332335,14.5674523 L78.7332335,11.5129952 C79.738166,9.38456367 81.1487956,7.51873223 82.9651223,5.91550085 C84.790618,4.30303565 86.9019426,3.07296352 89.2990961,2.22528444 Z M9.7643746,24.5093829 C10.3452225,24.5093829 10.8015964,24.6890548 11.1334964,25.0483985 C11.4654105,25.4077493 11.6313676,25.9099001 11.6313676,26.554851 C11.6313676,27.1998371 11.4608013,27.6974062 11.1196687,28.0475584 C10.7785362,28.4069092 10.326782,28.5865846 9.76440634,28.5865846 C9.18349496,28.5865846 8.72250121,28.4022712 8.3813616,28.0337077 C8.04022904,27.6743639 7.86966276,27.1814117 7.86966276,26.554851 C7.86966276,25.9190846 8.03561981,25.4169338 8.3675339,25.0483985 C8.70866646,24.6890548 9.17428003,24.5093829 9.7643746,24.5093829 Z M14.5770902,24.5093829 C15.1671565,24.5093829 15.6281503,24.6890548 15.9600714,25.0483985 C16.2919855,25.416962 16.4579426,25.9191128 16.4579426,26.554851 C16.4579426,27.1814117 16.2827671,27.6743639 15.932416,28.0337077 C15.5912835,28.4022712 15.1395293,28.5865529 14.5771536,28.5865529 C13.9962105,28.5865529 13.5352168,28.4022712 13.1940772,28.0337077 C12.8529446,27.6743639 12.6823783,27.1814117 12.6823783,26.554851 C12.6823783,25.9190846 12.8483354,25.4169338 13.1802495,25.0483985 C13.521382,24.6890548 13.9869956,24.5093829 14.5770902,24.5093829 Z M4.21802938,1.77635684e-14 L4.21802938,18.1053423 L7.75842756,18.1053423 L7.80832069,18.1100926 L12.4333951,18.1102271 L12.4333951,7.49591199 L16.6514245,7.49591199 L16.6514245,21.5105296 L7.48229682,21.5105296 L7.44,21.505 L2.89546165e-13,21.5056449 L2.89546165e-13,1.77635684e-14 L4.21802938,1.77635684e-14 Z" id="wikipedia-wordmark-sd" fill="#000000" fill-rule="nonzero"></path>
    </g>
</svg>

<svg xmlns="http://www.w3.org/2000/svg" width="120" height="31"><path fill="#000" fill-rule="nonzero" d="M112.518 28.309c-1.282 0-2.393-.102-3.333-.304a8.715 8.715 0 0 1-2.697-1.065l1.646-3.082c.765.397 1.489.673 2.171.83a8.985 8.985 0 0 0 2.13.248c1.07 0 1.895-.294 2.476-.884.58-.58.87-1.382.87-2.405v-.138h-2.807c-2.019 0-3.572-.571-4.66-1.714-1.088-1.142-1.632-2.769-1.632-4.879 0-1.492.373-2.8 1.12-3.925.747-1.133 1.803-2 3.167-2.598 1.365-.6 2.941-.899 4.73-.899H120v14.097c0 2.147-.655 3.801-1.964 4.962-1.3 1.17-3.14 1.755-5.518 1.755Zm3.264-10.2v-7.215h-.913c-1.208 0-2.153.341-2.835 1.023-.673.682-1.01 1.645-1.01 2.888 0 1.134.23 1.968.692 2.502.46.534 1.166.802 2.116.802h1.95Zm-59.26 9.261c.498 0 .89.157 1.176.47.295.323.442.742.442 1.258s-.147.93-.442 1.244c-.286.322-.678.484-1.176.484-.451 0-.834-.143-1.148-.429-.304-.285-.456-.719-.456-1.3 0-.598.152-1.036.456-1.312.314-.276.697-.415 1.148-.415Zm9.847-2.86c.58 0 1.037.18 1.369.538.332.36.498.862.498 1.507 0 .645-.17 1.142-.512 1.493-.341.359-.793.539-1.355.539-.581 0-1.042-.185-1.383-.553-.341-.36-.512-.853-.512-1.48 0-.635.166-1.137.498-1.506.341-.359.807-.539 1.397-.539Zm4.813 0c.59 0 1.05.18 1.383.538.331.369.497.871.497 1.507 0 .626-.175 1.12-.525 1.479-.341.368-.793.553-1.355.553-.581 0-1.042-.185-1.383-.553-.342-.36-.512-.853-.512-1.48 0-.635.166-1.137.498-1.506.34-.359.806-.539 1.397-.539Zm-29.928 0c.58 0 1.037.18 1.369.538.332.36.498.862.498 1.507 0 .645-.17 1.142-.512 1.493-.341.359-.793.539-1.355.539-.581 0-1.042-.185-1.383-.553-.341-.36-.512-.853-.512-1.48 0-.635.166-1.137.498-1.506.34-.359.807-.539 1.397-.539Zm4.812 0c.59 0 1.051.18 1.383.538.332.369.498.871.498 1.507 0 .626-.175 1.12-.525 1.479-.341.368-.793.553-1.356.553-.58 0-1.042-.185-1.383-.553-.34-.36-.511-.853-.511-1.48 0-.635.166-1.137.498-1.506.34-.359.806-.539 1.396-.539Zm-19.347-.005c.571 0 1.023.18 1.355.539.341.36.512.861.512 1.506 0 .627-.176 1.12-.526 1.48-.341.368-.788.552-1.341.552-.59 0-1.056-.184-1.397-.553-.341-.36-.512-.852-.512-1.479 0-.635.166-1.138.498-1.506.341-.36.811-.54 1.41-.54Zm27.397-1.323c.59 0 1.051.18 1.383.54.332.368.498.866.498 1.492 0 .636-.175 1.134-.526 1.493-.34.368-.793.553-1.355.553-.58 0-1.042-.185-1.383-.553-.341-.369-.512-.866-.512-1.493 0-.626.166-1.124.498-1.493.332-.359.798-.539 1.397-.539Zm4.827 0c.571 0 1.023.18 1.355.54.34.359.511.856.511 1.492s-.175 1.134-.525 1.493c-.341.369-.788.553-1.342.553-.59 0-1.055-.18-1.396-.54-.341-.359-.512-.86-.512-1.506 0-.626.166-1.124.498-1.492.332-.36.802-.54 1.41-.54ZM89.299 2.226l1.55 3.801a17.14 17.14 0 0 0-4.606 2.184c-1.439.967-2.48 1.953-3.126 2.958h11.327c2.683 0 4.697.543 6.043 1.63 1.356 1.088 2.033 2.677 2.033 4.769v3.939H75.484a.216.216 0 0 1-.043.004H37.464l-.042-.005h-17.08v-3.4h9.46c-.387-1.74-.861-3.146-1.424-4.215a9.497 9.497 0 0 0-2.13-2.778c-.857-.783-1.908-1.433-3.153-1.949l1.59-3.966c2.49.995 4.495 2.534 6.017 4.616 1.52 2.083 2.637 4.847 3.346 8.293h3.72l.05.004h4.03V7.496h4.218V18.11h8.34V7.496h4.218V18.11h8.34V7.496h4.218V18.11h3.817l23.303-.004c0-1.143-.392-2.018-1.176-2.626-.783-.608-1.894-.913-3.333-.913h-15.06v-3.054c1.005-2.128 2.416-3.994 4.232-5.597 1.826-1.613 3.937-2.843 6.334-3.69ZM9.764 24.51c.581 0 1.038.18 1.37.54.331.359.497.86.497 1.506 0 .645-.17 1.142-.511 1.493-.341.359-.793.539-1.356.539-.58 0-1.041-.185-1.383-.553-.34-.36-.511-.853-.511-1.48 0-.635.166-1.137.498-1.506.34-.359.806-.539 1.396-.539Zm4.813 0c.59 0 1.051.18 1.383.54.332.368.498.87.498 1.506 0 .626-.175 1.12-.526 1.479-.34.368-.792.553-1.355.553-.58 0-1.042-.185-1.383-.553-.341-.36-.512-.853-.512-1.48 0-.635.166-1.137.498-1.506.341-.359.807-.539 1.397-.539ZM4.218 0v18.105h3.54l.05.005h4.625V7.496h4.218V21.51H7.482l-.042-.006H0V0h4.218Z"/></svg>
